;FLAVOR:Marlin
;TIME:2088
;Filament used: 1.66493m
;Layer height: 0.21875
;MINX:9.35
;MINY:16.486
;MINZ:0.263
;MAXX:66.68
;MAXY:72.951
;MAXZ:3.11
;Generated with Cura_SteamEngine 4.12.1
M140 S45
M105
M190 S45
M104 S215
M105
M109 S215
M82 ;absolute extrusion mode
G21;(metric values)
G90;(absolute positioning)
M82;(set extruder to absolute mode)
M107;(start with the fan off)
G28;(Home the printer)
G92 E0;(Reset the extruder to 0)
G0 Z5 E5 F500;(Move up and prime the nozzle)
G0 X-1 Z0;(Move outside the printable area)
G1 Y60 E8 F500;(Draw a priming/wiping line to the rear)
G1 X-1;(Move a little closer to the print area)
G1 Y10 E16 F500;(draw more priming/wiping)
G1 E15 F250;(Small retract)
G92 E0;(Zero the extruder)
G92 E0
G92 E0
G1 F2400 E-2.5
;LAYER_COUNT:14
;LAYER:0
M107
;MESH:phone.stl
G0 F4320 X65.14 Y71.411 Z0.263
;TYPE:WALL-INNER
G1 F2400 E0
G1 F1800 X10.89 Y71.411 E2.10008
G1 X10.89 Y17.161 E4.20015
G1 X65.14 Y17.161 E6.30023
G1 X65.14 Y70.717 E8.37344
G0 F1620 X65.14 Y71.411
G0 F4320 X65.49 Y71.761
G1 F1800 X10.54 Y71.761 E10.50062
G1 X10.54 Y16.811 E12.62779
G1 X65.49 Y16.811 E14.75496
G1 X65.49 Y71.067 E16.85527
G0 F1620 X65.49 Y71.761
G0 F4320 X65.815 Y72.086
;TYPE:WALL-OUTER
G1 F1800 X10.215 Y72.086 E19.00761
G1 X10.215 Y16.486 E21.15995
G1 X65.815 Y16.486 E23.31228
G1 X65.815 Y71.392 E25.43775
G0 F1620 X65.815 Y72.086
G0 F4320 X65.615 Y72.086
G0 X65.615 Y71.811
G0 X65.055 Y71.071
G0 X64.8 Y71.071
;TYPE:SKIN
G1 F1800 X11.23 Y71.071 E27.51151
G1 X11.23 Y17.501 E29.58526
G1 X64.8 Y17.501 E31.65901
G1 X64.8 Y70.377 E33.7059
G0 F1620 X64.8 Y71.071
G0 F4320 X65.055 Y71.071
G0 X65.055 Y18.115
G0 X64.642 Y18.115
G1 F1800 X64.185 Y17.657 E33.73095
G0 F4320 X63.69 Y17.657
G1 F1800 X64.642 Y18.61 E33.78309
G0 F4320 X64.642 Y19.105
G1 F1800 X63.195 Y17.657 E33.86234
G0 F4320 X62.7 Y17.657
G1 F1800 X64.642 Y19.6 E33.96868
G0 F4320 X64.642 Y20.095
G1 F1800 X62.205 Y17.657 E34.10212
G0 F4320 X61.71 Y17.657
G1 F1800 X64.642 Y20.59 E34.26267
G0 F4320 X64.642 Y21.085
G1 F1800 X61.215 Y17.657 E34.45031
G0 F4320 X60.72 Y17.657
G1 F1800 X64.642 Y21.58 E34.66505
G0 F4320 X64.642 Y22.075
G1 F1800 X60.225 Y17.657 E34.90689
G0 F4320 X59.73 Y17.657
G1 F1800 X64.642 Y22.57 E35.17583
G0 F4320 X64.642 Y23.065
G1 F1800 X59.235 Y17.657 E35.47186
G0 F4320 X58.74 Y17.657
G1 F1800 X64.642 Y23.56 E35.795
G0 F4320 X64.642 Y24.055
G1 F1800 X58.245 Y17.657 E36.14524
G0 F4320 X57.75 Y17.657
G1 F1800 X64.642 Y24.55 E36.52257
G0 F4320 X64.642 Y25.045
G1 F1800 X57.255 Y17.657 E36.92701
G0 F4320 X56.76 Y17.657
G1 F1800 X64.642 Y25.539 E37.35851
G0 F4320 X64.642 Y26.034
G1 F1800 X56.265 Y17.657 E37.81712
G0 F4320 X55.77 Y17.657
G1 F1800 X64.642 Y26.529 E38.30282
G0 F4320 X64.642 Y27.024
G1 F1800 X55.275 Y17.657 E38.81562
G0 F4320 X54.78 Y17.657
G1 F1800 X64.642 Y27.519 E39.35553
G0 F4320 X64.642 Y28.014
G1 F1800 X54.286 Y17.657 E39.9225
G0 F4320 X53.791 Y17.657
G1 F1800 X64.642 Y28.509 E40.51657
G0 F4320 X64.642 Y29.004
G1 F1800 X53.296 Y17.657 E41.13775
G0 F4320 X52.801 Y17.657
G1 F1800 X64.642 Y29.499 E41.78602
G0 F4320 X64.642 Y29.994
G1 F1800 X52.306 Y17.657 E42.46139
G0 F4320 X51.811 Y17.657
G1 F1800 X64.642 Y30.489 E43.16386
G0 F4320 X64.642 Y30.984
G1 F1800 X51.316 Y17.657 E43.89343
G0 F4320 X50.821 Y17.657
G1 F1800 X64.642 Y31.479 E44.6501
G0 F4320 X64.642 Y31.974
G1 F1800 X50.326 Y17.657 E45.43387
G0 F4320 X49.831 Y17.657
G1 F1800 X64.642 Y32.469 E46.24473
G0 F4320 X64.642 Y32.964
G1 F1800 X49.336 Y17.657 E47.0827
G0 F4320 X48.841 Y17.657
G1 F1800 X64.642 Y33.459 E47.94776
G0 F4320 X64.642 Y33.954
G1 F1800 X48.346 Y17.657 E48.83993
G0 F4320 X47.851 Y17.657
G1 F1800 X64.642 Y34.449 E49.75919
G0 F4320 X64.642 Y34.944
G1 F1800 X47.356 Y17.657 E50.70555
G0 F4320 X46.861 Y17.657
G1 F1800 X64.642 Y35.439 E51.67901
G0 F4320 X64.642 Y35.934
G1 F1800 X46.366 Y17.657 E52.67957
G0 F4320 X45.871 Y17.657
G1 F1800 X64.642 Y36.429 E53.70723
G0 F4320 X64.642 Y36.924
G1 F1800 X45.376 Y17.657 E54.76199
G0 F4320 X44.881 Y17.657
G1 F1800 X64.642 Y37.419 E55.84385
G0 F4320 X64.642 Y37.914
G1 F1800 X44.386 Y17.657 E56.95281
G0 F4320 X43.891 Y17.657
G1 F1800 X64.642 Y38.409 E58.08887
G0 F4320 X64.642 Y38.904
G1 F1800 X43.396 Y17.657 E59.25202
G0 F4320 X42.901 Y17.657
G1 F1800 X64.642 Y39.399 E60.44228
G0 F4320 X64.642 Y39.894
G1 F1800 X42.406 Y17.657 E61.65963
G0 F4320 X41.911 Y17.657
G1 F1800 X64.642 Y40.389 E62.90408
G0 F4320 X64.642 Y40.884
G1 F1800 X41.416 Y17.657 E64.17563
G0 F4320 X40.921 Y17.657
G1 F1800 X64.642 Y41.379 E65.47429
G0 F4320 X64.642 Y41.874
G1 F1800 X40.426 Y17.657 E66.80004
G0 F4320 X39.931 Y17.657
G1 F1800 X64.642 Y42.369 E68.15289
G0 F4320 X64.642 Y42.864
G1 F1800 X39.436 Y17.657 E69.53284
G0 F4320 X38.941 Y17.657
G1 F1800 X64.642 Y43.359 E70.93988
G0 F4320 X64.642 Y43.854
G1 F1800 X38.446 Y17.657 E72.37403
G0 F4320 X37.951 Y17.657
G1 F1800 X64.642 Y44.349 E73.83528
G0 F4320 X64.642 Y44.844
G1 F1800 X37.456 Y17.657 E75.32362
G0 F4320 X36.961 Y17.657
G1 F1800 X64.642 Y45.338 E76.83904
G0 F4320 X64.642 Y45.833
G1 F1800 X36.466 Y17.657 E78.38155
G0 F4320 X35.971 Y17.657
G1 F1800 X64.642 Y46.328 E79.95117
G0 F4320 X64.642 Y46.823
G1 F1800 X35.476 Y17.657 E81.54788
G0 F4320 X34.981 Y17.657
G1 F1800 X64.642 Y47.318 E83.1717
G0 F4320 X64.642 Y47.813
G1 F1800 X34.487 Y17.657 E84.82258
G0 F4320 X33.992 Y17.657
G1 F1800 X64.642 Y48.308 E86.50057
G0 F4320 X64.642 Y48.803
G1 F1800 X33.497 Y17.657 E88.20565
G0 F4320 X33.002 Y17.657
G1 F1800 X64.642 Y49.298 E89.93784
G0 F4320 X64.642 Y49.793
G1 F1800 X32.507 Y17.657 E91.69712
G0 F4320 X32.012 Y17.657
G1 F1800 X64.642 Y50.288 E93.4835
G0 F4320 X64.642 Y50.783
G1 F1800 X31.517 Y17.657 E95.29698
G0 F4320 X31.022 Y17.657
G1 F1800 X64.642 Y51.278 E97.13756
G0 F4320 X64.642 Y51.773
G1 F1800 X30.527 Y17.657 E99.00524
G0 F4320 X30.032 Y17.657
G1 F1800 X64.642 Y52.268 E100.90001
G0 F4320 X64.642 Y52.763
G1 F1800 X29.537 Y17.657 E102.82189
G0 F4320 X29.042 Y17.657
G1 F1800 X64.642 Y53.258 E104.77087
G0 F4320 X64.642 Y53.753
G1 F1800 X28.547 Y17.657 E106.74694
G0 F4320 X28.052 Y17.657
G1 F1800 X64.642 Y54.248 E108.75012
G0 F4320 X64.642 Y54.743
G1 F1800 X27.557 Y17.657 E110.78039
G0 F4320 X27.062 Y17.657
G1 F1800 X64.642 Y55.238 E112.83776
G0 F4320 X64.642 Y55.733
G1 F1800 X26.567 Y17.657 E114.92224
G0 F4320 X26.072 Y17.657
G1 F1800 X64.642 Y56.228 E117.03381
G0 F4320 X64.642 Y56.723
G1 F1800 X25.577 Y17.657 E119.17248
G0 F4320 X25.082 Y17.657
G1 F1800 X64.642 Y57.218 E121.33825
G0 F4320 X64.642 Y57.713
G1 F1800 X24.587 Y17.657 E123.53111
G0 F4320 X24.092 Y17.657
G1 F1800 X64.642 Y58.208 E125.75108
G0 F4320 X64.642 Y58.703
G1 F1800 X23.597 Y17.657 E127.99815
G0 F4320 X23.102 Y17.657
G1 F1800 X64.642 Y59.198 E130.27231
G0 F4320 X64.642 Y59.693
G1 F1800 X22.607 Y17.657 E132.57358
G0 F4320 X22.112 Y17.657
G1 F1800 X64.642 Y60.188 E134.90194
G0 F4320 X64.642 Y60.683
G1 F1800 X21.617 Y17.657 E137.25741
G0 F4320 X21.122 Y17.657
G1 F1800 X64.642 Y61.178 E139.63997
G0 F4320 X64.642 Y61.673
G1 F1800 X20.627 Y17.657 E142.04963
G0 F4320 X20.132 Y17.657
G1 F1800 X64.642 Y62.168 E144.48639
G0 F4320 X64.642 Y62.663
G1 F1800 X19.637 Y17.657 E146.95025
G0 F4320 X19.142 Y17.657
G1 F1800 X64.642 Y63.158 E149.44121
G0 F4320 X64.642 Y63.653
G1 F1800 X18.647 Y17.657 E151.95927
G0 F4320 X18.152 Y17.657
G1 F1800 X64.642 Y64.148 E154.50443
G0 F4320 X64.642 Y64.642
G1 F1800 X17.657 Y17.657 E157.07665
G0 F4320 X17.162 Y17.657
G1 F1800 X64.642 Y65.137 E159.67598
G0 F4320 X64.642 Y65.632
G1 F1800 X16.667 Y17.657 E162.30241
G0 F4320 X16.172 Y17.657
G1 F1800 X64.642 Y66.127 E164.95594
G0 F4320 X64.642 Y66.622
G1 F1800 X15.677 Y17.657 E167.63656
G0 F4320 X15.182 Y17.657
G1 F1800 X64.642 Y67.117 E170.34429
G0 F4320 X64.642 Y67.612
G1 F1800 X14.688 Y17.657 E173.07908
G0 F4320 X14.193 Y17.657
G1 F1800 X64.642 Y68.107 E175.84098
G0 F4320 X64.642 Y68.602
G1 F1800 X13.698 Y17.657 E178.62997
G0 F4320 X13.203 Y17.657
G1 F1800 X64.642 Y69.097 E181.44607
G0 F4320 X64.642 Y69.592
G1 F1800 X12.708 Y17.657 E184.28926
G0 F4320 X12.213 Y17.657
G1 F1800 X64.642 Y70.087 E187.15955
G0 F4320 X64.642 Y70.582
G1 F1800 X11.718 Y17.657 E190.05695
G0 F4320 X11.386 Y17.821
G1 F1800 X64.478 Y70.912 E192.96348
G0 F4320 X63.983 Y70.912
G1 F1800 X11.386 Y18.316 E195.84291
G0 F4320 X11.386 Y18.811
G1 F1800 X63.488 Y70.912 E198.69525
G0 F4320 X62.993 Y70.912
G1 F1800 X11.386 Y19.306 E201.52049
G0 F4320 X11.386 Y19.801
G1 F1800 X62.498 Y70.912 E204.31862
G0 F4320 X62.003 Y70.912
G1 F1800 X11.386 Y20.296 E207.08966
G0 F4320 X11.386 Y20.791
G1 F1800 X61.508 Y70.912 E209.8336
G0 F4320 X61.013 Y70.912
G1 F1800 X11.386 Y21.286 E212.55044
G0 F4320 X11.386 Y21.781
G1 F1800 X60.518 Y70.912 E215.24018
G0 F4320 X60.023 Y70.912
G1 F1800 X11.386 Y22.275 E217.90285
G0 F4320 X11.386 Y22.77
G1 F1800 X59.528 Y70.912 E220.53842
G0 F4320 X59.033 Y70.912
G1 F1800 X11.386 Y23.265 E223.14689
G0 F4320 X11.386 Y23.76
G1 F1800 X58.538 Y70.912 E225.72826
G0 F4320 X58.043 Y70.912
G1 F1800 X11.386 Y24.255 E228.28254
G0 F4320 X11.386 Y24.75
G1 F1800 X57.548 Y70.912 E230.80971
G0 F4320 X57.053 Y70.912
G1 F1800 X11.386 Y25.245 E233.30978
G0 F4320 X11.386 Y25.74
G1 F1800 X56.558 Y70.912 E235.78276
G0 F4320 X56.063 Y70.912
G1 F1800 X11.386 Y26.235 E238.22863
G0 F4320 X11.386 Y26.73
G1 F1800 X55.568 Y70.912 E240.64741
G0 F4320 X55.073 Y70.912
G1 F1800 X11.386 Y27.225 E243.03909
G0 F4320 X11.386 Y27.72
G1 F1800 X54.578 Y70.912 E245.40367
G0 F4320 X54.083 Y70.912
G1 F1800 X11.386 Y28.215 E247.74115
G0 F4320 X11.386 Y28.71
G1 F1800 X53.588 Y70.912 E250.05153
G0 F4320 X53.093 Y70.912
G1 F1800 X11.386 Y29.205 E252.33481
G0 F4320 X11.386 Y29.7
G1 F1800 X52.598 Y70.912 E254.59099
G0 F4320 X52.103 Y70.912
G1 F1800 X11.386 Y30.195 E256.82007
G0 F4320 X11.386 Y30.69
G1 F1800 X51.608 Y70.912 E259.02206
G0 F4320 X51.113 Y70.912
G1 F1800 X11.386 Y31.185 E261.19694
G0 F4320 X11.386 Y31.68
G1 F1800 X50.618 Y70.912 E263.34473
G0 F4320 X50.123 Y70.912
G1 F1800 X11.386 Y32.175 E265.46541
G0 F4320 X11.386 Y32.67
G1 F1800 X49.628 Y70.912 E267.559
G0 F4320 X49.134 Y70.912
G1 F1800 X11.386 Y33.165 E269.62551
G0 F4320 X11.386 Y33.66
G1 F1800 X48.639 Y70.912 E271.66493
G0 F4320 X48.144 Y70.912
G1 F1800 X11.386 Y34.155 E273.67725
G0 F4320 X11.386 Y34.65
G1 F1800 X47.649 Y70.912 E275.66247
G0 F4320 X47.154 Y70.912
G1 F1800 X11.386 Y35.145 E277.62058
G0 F4320 X11.386 Y35.64
G1 F1800 X46.659 Y70.912 E279.5516
G0 F4320 X46.164 Y70.912
G1 F1800 X11.386 Y36.135 E281.45552
G0 F4320 X11.386 Y36.63
G1 F1800 X45.669 Y70.912 E283.33234
G0 F4320 X45.174 Y70.912
G1 F1800 X11.386 Y37.125 E285.18207
G0 F4320 X11.386 Y37.62
G1 F1800 X44.679 Y70.912 E287.00469
G0 F4320 X44.184 Y70.912
G1 F1800 X11.386 Y38.115 E288.80021
G0 F4320 X11.386 Y38.61
G1 F1800 X43.689 Y70.912 E290.56864
G0 F4320 X43.194 Y70.912
G1 F1800 X11.386 Y39.105 E292.30996
G0 F4320 X11.386 Y39.6
G1 F1800 X42.699 Y70.912 E294.02419
G0 F4320 X42.204 Y70.912
G1 F1800 X11.386 Y40.095 E295.71132
G0 F4320 X11.386 Y40.59
G1 F1800 X41.709 Y70.912 E297.37134
G0 F4320 X41.214 Y70.912
G1 F1800 X11.386 Y41.085 E299.00427
G0 F4320 X11.386 Y41.58
G1 F1800 X40.719 Y70.912 E300.6101
G0 F4320 X40.224 Y70.912
G1 F1800 X11.386 Y42.074 E302.18886
G0 F4320 X11.386 Y42.569
G1 F1800 X39.729 Y70.912 E303.74052
G0 F4320 X39.234 Y70.912
G1 F1800 X11.386 Y43.064 E305.26508
G0 F4320 X11.386 Y43.559
G1 F1800 X38.739 Y70.912 E306.76254
G0 F4320 X38.244 Y70.912
G1 F1800 X11.386 Y44.054 E308.2329
G0 F4320 X11.386 Y44.549
G1 F1800 X37.749 Y70.912 E309.67616
G0 F4320 X37.254 Y70.912
G1 F1800 X11.386 Y45.044 E311.09233
G0 F4320 X11.386 Y45.539
G1 F1800 X36.759 Y70.912 E312.48139
G0 F4320 X36.264 Y70.912
G1 F1800 X11.386 Y46.034 E313.84336
G0 F4320 X11.386 Y46.529
G1 F1800 X35.769 Y70.912 E315.17822
G0 F4320 X35.274 Y70.912
G1 F1800 X11.386 Y47.024 E316.48599
G0 F4320 X11.386 Y47.519
G1 F1800 X34.779 Y70.912 E317.76666
G0 F4320 X34.284 Y70.912
G1 F1800 X11.386 Y48.014 E319.02022
G0 F4320 X11.386 Y48.509
G1 F1800 X33.789 Y70.912 E320.24669
G0 F4320 X33.294 Y70.912
G1 F1800 X11.386 Y49.004 E321.44606
G0 F4320 X11.386 Y49.499
G1 F1800 X32.799 Y70.912 E322.61833
G0 F4320 X32.304 Y70.912
G1 F1800 X11.386 Y49.994 E323.7635
G0 F4320 X11.386 Y50.489
G1 F1800 X31.809 Y70.912 E324.88158
G0 F4320 X31.314 Y70.912
G1 F1800 X11.386 Y50.984 E325.97255
G0 F4320 X11.386 Y51.479
G1 F1800 X30.819 Y70.912 E327.03642
G0 F4320 X30.324 Y70.912
G1 F1800 X11.386 Y51.974 E328.0732
G0 F4320 X11.386 Y52.469
G1 F1800 X29.83 Y70.912 E329.0829
G0 F4320 X29.335 Y70.912
G1 F1800 X11.386 Y52.964 E330.06551
G0 F4320 X11.386 Y53.459
G1 F1800 X28.84 Y70.912 E331.02101
G0 F4320 X28.345 Y70.912
G1 F1800 X11.386 Y53.954 E331.94942
G0 F4320 X11.386 Y54.449
G1 F1800 X27.85 Y70.912 E332.85072
G0 F4320 X27.355 Y70.912
G1 F1800 X11.386 Y54.944 E333.72493
G0 F4320 X11.386 Y55.439
G1 F1800 X26.86 Y70.912 E334.57204
G0 F4320 X26.365 Y70.912
G1 F1800 X11.386 Y55.934 E335.39205
G0 F4320 X11.386 Y56.429
G1 F1800 X25.87 Y70.912 E336.18496
G0 F4320 X25.375 Y70.912
G1 F1800 X11.386 Y56.924 E336.95077
G0 F4320 X11.386 Y57.419
G1 F1800 X24.88 Y70.912 E337.68948
G0 F4320 X24.385 Y70.912
G1 F1800 X11.386 Y57.914 E338.40109
G0 F4320 X11.386 Y58.409
G1 F1800 X23.89 Y70.912 E339.08561
G0 F4320 X23.395 Y70.912
G1 F1800 X11.386 Y58.904 E339.74302
G0 F4320 X11.386 Y59.399
G1 F1800 X22.9 Y70.912 E340.37334
G0 F4320 X22.405 Y70.912
G1 F1800 X11.386 Y59.894 E340.97655
G0 F4320 X11.386 Y60.389
G1 F1800 X21.91 Y70.912 E341.55267
G0 F4320 X21.415 Y70.912
G1 F1800 X11.386 Y60.884 E342.10169
G0 F4320 X11.386 Y61.378
G1 F1800 X20.92 Y70.912 E342.62363
G0 F4320 X20.425 Y70.912
G1 F1800 X11.386 Y61.873 E343.11848
G0 F4320 X11.386 Y62.368
G1 F1800 X19.93 Y70.912 E343.58623
G0 F4320 X19.435 Y70.912
G1 F1800 X11.386 Y62.863 E344.02688
G0 F4320 X11.386 Y63.358
G1 F1800 X18.94 Y70.912 E344.44043
G0 F4320 X18.445 Y70.912
G1 F1800 X11.386 Y63.853 E344.82688
G0 F4320 X11.386 Y64.348
G1 F1800 X17.95 Y70.912 E345.18623
G0 F4320 X17.455 Y70.912
G1 F1800 X11.386 Y64.843 E345.51848
G0 F4320 X11.386 Y65.338
G1 F1800 X16.96 Y70.912 E345.82363
G0 F4320 X16.465 Y70.912
G1 F1800 X11.386 Y65.833 E346.10169
G0 F4320 X11.386 Y66.328
G1 F1800 X15.97 Y70.912 E346.35264
G0 F4320 X15.475 Y70.912
M104 S210
G1 F1800 X11.386 Y66.823 E346.5765
G0 F4320 X11.386 Y67.318
G1 F1800 X14.98 Y70.912 E346.77325
G0 F4320 X14.485 Y70.912
G1 F1800 X11.386 Y67.813 E346.94291
G0 F4320 X11.386 Y68.308
G1 F1800 X13.99 Y70.912 E347.08547
G0 F4320 X13.495 Y70.912
G1 F1800 X11.386 Y68.803 E347.20093
G0 F4320 X11.386 Y69.298
G1 F1800 X13 Y70.912 E347.28929
G0 F4320 X12.505 Y70.912
G1 F1800 X11.386 Y69.793 E347.35055
G0 F4320 X11.386 Y70.288
G1 F1800 X12.01 Y70.912 E347.38471
G0 F4320 X11.515 Y70.912
G1 F1800 X11.386 Y70.783 E347.39177
G0 F4320 X10.74 Y70.783
;MESH:NONMESH
G0 F90 X10.74 Y70.783 Z0.482
G0 F4320 X65.14 Y71.411
;TIME_ELAPSED:336.703434
;LAYER:1
M140 S40
M106 S255
;TYPE:WALL-INNER
;MESH:phone.stl
G1 F2400 X10.89 Y71.411 E349.1405
G1 X10.89 Y17.161 E350.88924
G1 X65.14 Y17.161 E352.63797
G1 X65.14 Y70.577 E354.35982
G0 F2160 X65.14 Y71.411
G0 F5760 X65.49 Y71.761
G1 F2400 X10.54 Y71.761 E356.13112
G1 X10.54 Y16.811 E357.90241
G1 X65.49 Y16.811 E359.67371
G1 X65.49 Y70.927 E361.41812
G0 F2160 X65.49 Y71.761
G0 F5760 X65.815 Y72.086
;TYPE:WALL-OUTER
G1 F2025 X10.215 Y72.086 E363.21037
G1 X10.215 Y16.486 E365.00262
G1 X65.815 Y16.486 E366.79487
G1 X65.815 Y71.252 E368.56024
G0 F1822.5 X65.815 Y72.086
G0 F5760 X65.615 Y72.086
G0 X65.615 Y71.811
G0 X65.055 Y71.071
G0 X64.8 Y71.071
;TYPE:SKIN
G1 F1500 X11.23 Y71.071 E370.28705
G1 X11.23 Y17.501 E372.01387
G1 X64.8 Y17.501 E373.74068
G1 X64.8 Y70.237 E375.44061
G0 F1350 X64.8 Y71.071
G0 F5760 X64.214 Y70.913
G1 F1500 X64.642 Y70.485 E375.46012
G0 F5760 X64.642 Y69.99
G1 F1500 X63.719 Y70.913 E375.5022
G0 F5760 X63.224 Y70.913
G1 F1500 X64.642 Y69.495 E375.56684
G0 F5760 X64.642 Y69
G1 F1500 X62.729 Y70.913 E375.65405
G0 F5760 X62.234 Y70.913
G1 F1500 X64.642 Y68.505 E375.76382
G0 F5760 X64.642 Y68.01
G1 F1500 X61.739 Y70.913 E375.89616
G0 F5760 X61.244 Y70.913
G1 F1500 X64.642 Y67.515 E376.05106
G0 F5760 X64.642 Y67.02
G1 F1500 X60.749 Y70.913 E376.22853
