;FLAVOR:Marlin
;TIME:1268
;Filament used: 0.944722m
;Layer height: 0.21875
;MINX:11.754
;MINY:20.206
;MINZ:0.263
;MAXX:63.765
;MAXY:70.671
;MAXZ:3.11
;Generated with Cura_SteamEngine 4.12.1
M140 S45
M105
M190 S45
M104 S215
M105
M109 S215
M82 ;absolute extrusion mode
G21;(metric values)
G90;(absolute positioning)
M82;(set extruder to absolute mode)
M107;(start with the fan off)
G28;(Home the printer)
G92 E0;(Reset the extruder to 0)
G0 Z5 E5 F500;(Move up and prime the nozzle)
G0 X-1 Z0;(Move outside the printable area)
G1 Y60 E8 F500;(Draw a priming/wiping line to the rear)
G1 X-1;(Move a little closer to the print area)
G1 Y10 E16 F500;(draw more priming/wiping)
G1 E15 F250;(Small retract)
G92 E0;(Zero the extruder)
G92 E0
G92 E0
G1 F2400 E-2.5
;LAYER_COUNT:14
;LAYER:0
M107
;MESH:phone2.stl
G0 F4320 X62.225 Y69.131 Z0.263
;TYPE:WALL-INNER
G1 F2400 E0
G1 F1800 X12.429 Y69.131 E1.92766
G1 X12.429 Y20.881 E3.79547
G1 X62.225 Y20.881 E5.72313
G1 X62.225 Y68.437 E7.56407
G0 F1620 X62.225 Y69.131
G0 F4320 X62.575 Y69.481
G1 F1800 X12.079 Y69.481 E9.51883
G1 X12.079 Y20.531 E11.41373
G1 X62.575 Y20.531 E13.36849
G1 X62.575 Y68.787 E15.23653
G0 F1620 X62.575 Y69.481
G0 F4320 X62.9 Y69.806
;TYPE:WALL-OUTER
G1 F1800 X11.754 Y69.806 E17.21645
G1 X11.754 Y20.206 E19.13652
G1 X62.9 Y20.206 E21.11644
G1 X62.9 Y69.112 E23.00964
G0 F1620 X62.9 Y69.806
G0 F4320 X62.7 Y69.806
G0 X62.7 Y69.531
G0 X62.14 Y68.791
G0 X61.885 Y68.791
;TYPE:SKIN
G1 F1800 X12.769 Y68.791 E24.91097
G1 X12.769 Y21.221 E26.75246
G1 X61.885 Y21.221 E28.65379
G1 X61.885 Y68.097 E30.46842
G0 F1620 X61.885 Y68.791
G0 F4320 X62.14 Y68.791
G0 X62.14 Y21.634
G0 X61.727 Y21.634
G1 F1800 X61.47 Y21.377 E30.48249
G0 F4320 X60.975 Y21.377
G1 F1800 X61.727 Y22.129 E30.52365
G0 F4320 X61.727 Y22.624
G1 F1800 X60.48 Y21.377 E30.59192
G0 F4320 X59.985 Y21.377
G1 F1800 X61.727 Y23.119 E30.68729
G0 F4320 X61.727 Y23.614
G1 F1800 X59.491 Y21.377 E30.80973
G0 F4320 X58.996 Y21.377
G1 F1800 X61.727 Y24.109 E30.95927
G0 F4320 X61.727 Y24.604
G1 F1800 X58.501 Y21.377 E31.1359
G0 F4320 X58.006 Y21.377
G1 F1800 X61.727 Y25.099 E31.33964
G0 F4320 X61.727 Y25.594
G1 F1800 X57.511 Y21.377 E31.57048
G0 F4320 X57.016 Y21.377
G1 F1800 X61.727 Y26.089 E31.82841
G0 F4320 X61.727 Y26.584
G1 F1800 X56.521 Y21.377 E32.11344
G0 F4320 X56.026 Y21.377
G1 F1800 X61.727 Y27.079 E32.42558
G0 F4320 X61.727 Y27.574
G1 F1800 X55.531 Y21.377 E32.76481
G0 F4320 X55.036 Y21.377
G1 F1800 X61.727 Y28.069 E33.13114
G0 F4320 X61.727 Y28.564
G1 F1800 X54.541 Y21.377 E33.52457
G0 F4320 X54.046 Y21.377
G1 F1800 X61.727 Y29.059 E33.9451
G0 F4320 X61.727 Y29.554
G1 F1800 X53.551 Y21.377 E34.39273
G0 F4320 X53.056 Y21.377
G1 F1800 X61.727 Y30.049 E34.86746
G0 F4320 X61.727 Y30.544
G1 F1800 X52.561 Y21.377 E35.36928
G0 F4320 X52.066 Y21.377
G1 F1800 X61.727 Y31.039 E35.89821
G0 F4320 X61.727 Y31.534
G1 F1800 X51.571 Y21.377 E36.45423
G0 F4320 X51.076 Y21.377
G1 F1800 X61.727 Y32.029 E37.03736
G0 F4320 X61.727 Y32.524
G1 F1800 X50.581 Y21.377 E37.64758
G0 F4320 X50.086 Y21.377
G1 F1800 X61.727 Y33.019 E38.2849
G0 F4320 X61.727 Y33.514
G1 F1800 X49.591 Y21.377 E38.94933
G0 F4320 X49.096 Y21.377
G1 F1800 X61.727 Y34.009 E39.64085
G0 F4320 X61.727 Y34.503
G1 F1800 X48.601 Y21.377 E40.35944
G0 F4320 X48.106 Y21.377
G1 F1800 X61.727 Y34.998 E41.10513
G0 F4320 X61.727 Y35.493
G1 F1800 X47.611 Y21.377 E41.87792
G0 F4320 X47.116 Y21.377
G1 F1800 X61.727 Y35.988 E42.67781
G0 F4320 X61.727 Y36.483
G1 F1800 X46.621 Y21.377 E43.5048
G0 F4320 X46.126 Y21.377
G1 F1800 X61.727 Y36.978 E44.35889
G0 F4320 X61.727 Y37.473
G1 F1800 X45.631 Y21.377 E45.24008
G0 F4320 X45.136 Y21.377
G1 F1800 X61.727 Y37.968 E46.14837
G0 F4320 X61.727 Y38.463
G1 F1800 X44.641 Y21.377 E47.08375
G0 F4320 X44.146 Y21.377
G1 F1800 X61.727 Y38.958 E48.04624
G0 F4320 X61.727 Y39.453
G1 F1800 X43.651 Y21.377 E49.03582
G0 F4320 X43.156 Y21.377
G1 F1800 X61.727 Y39.948 E50.0525
G0 F4320 X61.727 Y40.443
G1 F1800 X42.661 Y21.377 E51.09629
G0 F4320 X42.166 Y21.377
G1 F1800 X61.727 Y40.938 E52.16717
G0 F4320 X61.727 Y41.433
G1 F1800 X41.671 Y21.377 E53.26515
G0 F4320 X41.176 Y21.377
G1 F1800 X61.727 Y41.928 E54.39023
G0 F4320 X61.727 Y42.423
G1 F1800 X40.681 Y21.377 E55.54241
G0 F4320 X40.186 Y21.377
G1 F1800 X61.727 Y42.918 E56.72169
G0 F4320 X61.727 Y43.413
G1 F1800 X39.692 Y21.377 E57.92804
G0 F4320 X39.197 Y21.377
G1 F1800 X61.727 Y43.908 E59.16149
G0 F4320 X61.727 Y44.403
G1 F1800 X38.702 Y21.377 E60.42203
G0 F4320 X38.207 Y21.377
G1 F1800 X61.727 Y44.898 E61.70968
G0 F4320 X61.727 Y45.393
G1 F1800 X37.712 Y21.377 E63.02443
G0 F4320 X37.217 Y21.377
G1 F1800 X61.727 Y45.888 E64.36627
G0 F4320 X61.727 Y46.383
G1 F1800 X36.722 Y21.377 E65.73522
G0 F4320 X36.227 Y21.377
G1 F1800 X61.727 Y46.878 E67.13126
G0 F4320 X61.727 Y47.373
G1 F1800 X35.732 Y21.377 E68.55441
G0 F4320 X35.237 Y21.377
G1 F1800 X61.727 Y47.868 E70.00465
G0 F4320 X61.727 Y48.363
G1 F1800 X34.742 Y21.377 E71.48199
G0 F4320 X34.247 Y21.377
G1 F1800 X61.727 Y48.858 E72.98643
G0 F4320 X61.727 Y49.353
G1 F1800 X33.752 Y21.377 E74.51797
G0 F4320 X33.257 Y21.377
G1 F1800 X61.727 Y49.848 E76.07661
G0 F4320 X61.727 Y50.343
G1 F1800 X32.762 Y21.377 E77.66235
G0 F4320 X32.267 Y21.377
G1 F1800 X61.727 Y50.838 E79.27518
G0 F4320 X61.727 Y51.333
G1 F1800 X31.772 Y21.377 E80.91512
G0 F4320 X31.277 Y21.377
G1 F1800 X61.727 Y51.828 E82.58216
G0 F4320 X61.727 Y52.323
G1 F1800 X30.782 Y21.377 E84.27629
G0 F4320 X30.287 Y21.377
G1 F1800 X61.727 Y52.818 E85.99752
G0 F4320 X61.727 Y53.313
G1 F1800 X29.792 Y21.377 E87.74586
G0 F4320 X29.297 Y21.377
G1 F1800 X61.727 Y53.807 E89.52126
G0 F4320 X61.727 Y54.302
G1 F1800 X28.802 Y21.377 E91.32376
G0 F4320 X28.307 Y21.377
G1 F1800 X61.727 Y54.797 E93.15337
G0 F4320 X61.727 Y55.292
G1 F1800 X27.812 Y21.377 E95.01007
G0 F4320 X27.317 Y21.377
G1 F1800 X61.727 Y55.787 E96.89387
G0 F4320 X61.727 Y56.282
G1 F1800 X26.822 Y21.377 E98.80477
G0 F4320 X26.327 Y21.377
G1 F1800 X61.727 Y56.777 E100.74277
G0 F4320 X61.727 Y57.272
G1 F1800 X25.832 Y21.377 E102.70787
G0 F4320 X25.337 Y21.377
G1 F1800 X61.727 Y57.767 E104.70007
G0 F4320 X61.727 Y58.262
G1 F1800 X24.842 Y21.377 E106.71936
G0 F4320 X24.347 Y21.377
G1 F1800 X61.727 Y58.757 E108.76576
G0 F4320 X61.727 Y59.252
G1 F1800 X23.852 Y21.377 E110.83926
G0 F4320 X23.357 Y21.377
G1 F1800 X61.727 Y59.747 E112.93985
G0 F4320 X61.727 Y60.242
G1 F1800 X22.862 Y21.377 E115.06754
G0 F4320 X22.367 Y21.377
G1 F1800 X61.727 Y60.737 E117.22234
G0 F4320 X61.727 Y61.232
G1 F1800 X21.872 Y21.377 E119.40423
G0 F4320 X21.377 Y21.377
G1 F1800 X61.727 Y61.727 E121.61322
G0 F4320 X61.727 Y62.222
G1 F1800 X20.882 Y21.377 E123.84931
G0 F4320 X20.388 Y21.377
G1 F1800 X61.727 Y62.717 E126.11247
G0 F4320 X61.727 Y63.212
G1 F1800 X19.893 Y21.377 E128.40273
G0 F4320 X19.398 Y21.377
G1 F1800 X61.727 Y63.707 E130.72009
G0 F4320 X61.727 Y64.202
G1 F1800 X18.903 Y21.377 E133.06455
G0 F4320 X18.408 Y21.377
G1 F1800 X61.727 Y64.697 E135.43611
G0 F4320 X61.727 Y65.192
G1 F1800 X17.913 Y21.377 E137.83477
G0 F4320 X17.418 Y21.377
G1 F1800 X61.727 Y65.687 E140.26053
G0 F4320 X61.727 Y66.182
G1 F1800 X16.923 Y21.377 E142.71338
G0 F4320 X16.428 Y21.377
G1 F1800 X61.727 Y66.677 E145.19334
G0 F4320 X61.727 Y67.172
G1 F1800 X15.933 Y21.377 E147.70039
G0 F4320 X15.438 Y21.377
G1 F1800 X61.727 Y67.667 E150.23454
G0 F4320 X61.727 Y68.162
G1 F1800 X14.943 Y21.377 E152.7958
G0 F4320 X14.448 Y21.377
G1 F1800 X61.703 Y68.633 E155.38283
G0 F4320 X61.208 Y68.633
G1 F1800 X13.953 Y21.377 E157.96987
G0 F4320 X13.458 Y21.377
G1 F1800 X60.713 Y68.633 E160.55691
G0 F4320 X60.218 Y68.633
G1 F1800 X12.963 Y21.377 E163.14395
G0 F4320 X12.925 Y21.835
G1 F1800 X59.723 Y68.633 E165.70594
G0 F4320 X59.228 Y68.633
G1 F1800 X12.925 Y22.33 E168.24083
G0 F4320 X12.925 Y22.825
G1 F1800 X58.733 Y68.633 E170.74863
G0 F4320 X58.238 Y68.633
G1 F1800 X12.925 Y23.32 E173.22932
G0 F4320 X12.925 Y23.815
G1 F1800 X57.743 Y68.633 E175.68291
G0 F4320 X57.248 Y68.633
G1 F1800 X12.925 Y24.31 E178.10941
G0 F4320 X12.925 Y24.805
G1 F1800 X56.753 Y68.633 E180.50881
G0 F4320 X56.258 Y68.633
G1 F1800 X12.925 Y25.3 E182.88111
G0 F4320 X12.925 Y25.795
G1 F1800 X55.763 Y68.633 E185.2263
G0 F4320 X55.268 Y68.633
G1 F1800 X12.925 Y26.29 E187.5444
G0 F4320 X12.925 Y26.785
G1 F1800 X54.773 Y68.633 E189.8354
G0 F4320 X54.278 Y68.633
G1 F1800 X12.925 Y27.28 E192.0993
G0 F4320 X12.925 Y27.775
G1 F1800 X53.783 Y68.633 E194.33611
G0 F4320 X53.288 Y68.633
G1 F1800 X12.925 Y28.27 E196.54581
G0 F4320 X12.925 Y28.765
G1 F1800 X52.794 Y68.633 E198.72844
G0 F4320 X52.299 Y68.633
G1 F1800 X12.925 Y29.26 E200.88397
G0 F4320 X12.925 Y29.755
G1 F1800 X51.804 Y68.633 E203.0124
G0 F4320 X51.309 Y68.633
G1 F1800 X12.925 Y30.25 E205.11374
G0 F4320 X12.925 Y30.745
G1 F1800 X50.814 Y68.633 E207.18797
G0 F4320 X50.319 Y68.633
G1 F1800 X12.925 Y31.239 E209.23513
G0 F4320 X12.925 Y31.734
G1 F1800 X49.824 Y68.633 E211.2552
G0 F4320 X49.329 Y68.633
G1 F1800 X12.925 Y32.229 E213.24816
G0 F4320 X12.925 Y32.724
G1 F1800 X48.834 Y68.633 E215.21403
G0 F4320 X48.339 Y68.633
G1 F1800 X12.925 Y33.219 E217.15279
G0 F4320 X12.925 Y33.714
G1 F1800 X47.844 Y68.633 E219.06446
G0 F4320 X47.349 Y68.633
G1 F1800 X12.925 Y34.209 E220.94903
G0 F4320 X12.925 Y34.704
G1 F1800 X46.854 Y68.633 E222.8065
G0 F4320 X46.359 Y68.633
G1 F1800 X12.925 Y35.199 E224.63687
G0 F4320 X12.925 Y35.694
G1 F1800 X45.864 Y68.633 E226.44014
G0 F4320 X45.369 Y68.633
G1 F1800 X12.925 Y36.189 E228.21631
G0 F4320 X12.925 Y36.684
G1 F1800 X44.874 Y68.633 E229.96538
G0 F4320 X44.379 Y68.633
G1 F1800 X12.925 Y37.179 E231.68735
G0 F4320 X12.925 Y37.674
G1 F1800 X43.884 Y68.633 E233.38223
G0 F4320 X43.389 Y68.633
G1 F1800 X12.925 Y38.169 E235.05
G0 F4320 X12.925 Y38.664
G1 F1800 X42.894 Y68.633 E236.69068
G0 F4320 X42.399 Y68.633
G1 F1800 X12.925 Y39.159 E238.30425
G0 F4320 X12.925 Y39.654
G1 F1800 X41.904 Y68.633 E239.89073
G0 F4320 X41.409 Y68.633
G1 F1800 X12.925 Y40.149 E241.45011
G0 F4320 X12.925 Y40.644
G1 F1800 X40.914 Y68.633 E242.98239
G0 F4320 X40.419 Y68.633
G1 F1800 X12.925 Y41.139 E244.48757
G0 F4320 X12.925 Y41.634
G1 F1800 X39.924 Y68.633 E245.96565
G0 F4320 X39.429 Y68.633
G1 F1800 X12.925 Y42.129 E247.41663
G0 F4320 X12.925 Y42.624
G1 F1800 X38.934 Y68.633 E248.84051
G0 F4320 X38.439 Y68.633
G1 F1800 X12.925 Y43.119 E250.23729
G0 F4320 X12.925 Y43.614
G1 F1800 X37.944 Y68.633 E251.60698
G0 F4320 X37.449 Y68.633
G1 F1800 X12.925 Y44.109 E252.94956
G0 F4320 X12.925 Y44.604
G1 F1800 X36.954 Y68.633 E254.26505
G0 F4320 X36.459 Y68.633
G1 F1800 X12.925 Y45.099 E255.55343
G0 F4320 X12.925 Y45.594
G1 F1800 X35.964 Y68.633 E256.81472
G0 F4320 X35.469 Y68.633
G1 F1800 X12.925 Y46.089 E258.04891
G0 F4320 X12.925 Y46.584
G1 F1800 X34.974 Y68.633 E259.256
G0 F4320 X34.479 Y68.633
G1 F1800 X12.925 Y47.079 E260.43599
G0 F4320 X12.925 Y47.574
G1 F1800 X33.984 Y68.633 E261.58888
G0 F4320 X33.489 Y68.633
G1 F1800 X12.925 Y48.069 E262.71467
G0 F4320 X12.925 Y48.564
G1 F1800 X32.995 Y68.633 E263.81339
G0 F4320 X32.5 Y68.633
G1 F1800 X12.925 Y49.059 E264.88501
G0 F4320 X12.925 Y49.554
G1 F1800 X32.005 Y68.633 E265.92953
G0 F4320 X31.51 Y68.633
G1 F1800 X12.925 Y50.049 E266.94695
G0 F4320 X12.925 Y50.543
G1 F1800 X31.015 Y68.633 E267.93731
G0 F4320 X30.52 Y68.633
G1 F1800 X12.925 Y51.038 E268.90056
G0 F4320 X12.925 Y51.533
G1 F1800 X30.025 Y68.633 E269.83671
G0 F4320 X29.53 Y68.633
G1 F1800 X12.925 Y52.028 E270.74576
G0 F4320 X12.925 Y52.523
G1 F1800 X29.035 Y68.633 E271.62772
G0 F4320 X28.54 Y68.633
G1 F1800 X12.925 Y53.018 E272.48257
G0 F4320 X12.925 Y53.513
G1 F1800 X28.045 Y68.633 E273.31033
G0 F4320 X27.55 Y68.633
G1 F1800 X12.925 Y54.008 E274.11098
G0 F4320 X12.925 Y54.503
G1 F1800 X27.055 Y68.633 E274.88454
G0 F4320 X26.56 Y68.633
G1 F1800 X12.925 Y54.998 E275.631
G0 F4320 X12.925 Y55.493
G1 F1800 X26.065 Y68.633 E276.35036
G0 F4320 X25.57 Y68.633
G1 F1800 X12.925 Y55.988 E277.04262
G0 F4320 X12.925 Y56.483
G1 F1800 X25.075 Y68.633 E277.70778
G0 F4320 X24.58 Y68.633
G1 F1800 X12.925 Y56.978 E278.34584
G0 F4320 X12.925 Y57.473
G1 F1800 X24.085 Y68.633 E278.9568
G0 F4320 X23.59 Y68.633
G1 F1800 X12.925 Y57.968 E279.54067
G0 F4320 X12.925 Y58.463
G1 F1800 X23.095 Y68.633 E280.09743
G0 F4320 X22.6 Y68.633
G1 F1800 X12.925 Y58.958 E280.6271
G0 F4320 X12.925 Y59.453
G1 F1800 X22.105 Y68.633 E281.12966
G0 F4320 X21.61 Y68.633
G1 F1800 X12.925 Y59.948 E281.60513
G0 F4320 X12.925 Y60.443
G1 F1800 X21.115 Y68.633 E282.0535
G0 F4320 X20.62 Y68.633
G1 F1800 X12.925 Y60.938 E282.47477
G0 F4320 X12.925 Y61.433
G1 F1800 X20.125 Y68.633 E282.86894
G0 F4320 X19.63 Y68.633
G1 F1800 X12.925 Y61.928 E283.23601
G0 F4320 X12.925 Y62.423
G1 F1800 X19.135 Y68.633 E283.57598
G0 F4320 X18.64 Y68.633
G1 F1800 X12.925 Y62.918 E283.88885
G0 F4320 X12.925 Y63.413
G1 F1800 X18.145 Y68.633 E284.17462
G0 F4320 X17.65 Y68.633
G1 F1800 X12.925 Y63.908 E284.4333
G0 F4320 X12.925 Y64.403
M104 S210
G1 F1800 X17.155 Y68.633 E284.66487
G0 F4320 X16.66 Y68.633
G1 F1800 X12.925 Y64.898 E284.86935
G0 F4320 X12.925 Y65.393
G1 F1800 X16.165 Y68.633 E285.04672
G0 F4320 X15.67 Y68.633
G1 F1800 X12.925 Y65.888 E285.197
G0 F4320 X12.925 Y66.383
G1 F1800 X15.175 Y68.633 E285.32018
G0 F4320 X14.68 Y68.633
G1 F1800 X12.925 Y66.878 E285.41626
G0 F4320 X12.925 Y67.373
G1 F1800 X14.185 Y68.633 E285.48523
G0 F4320 X13.691 Y68.633
G1 F1800 X12.925 Y67.868 E285.52714
G0 F4320 X12.925 Y68.363
G1 F1800 X13.196 Y68.633 E285.54195
G0 F4320 X13.196 Y69.281
;MESH:NONMESH
G0 F90 X13.196 Y69.281 Z0.482
G0 F4320 X62.225 Y69.131
;TIME_ELAPSED:282.448159
;LAYER:1
M140 S40
M106 S255
;TYPE:WALL-INNER
;MESH:phone2.stl
G1 F2400 X12.429 Y69.131 E287.14711
G1 X12.429 Y20.881 E288.70244
G1 X62.225 Y20.881 E290.3076
G1 X62.225 Y68.297 E291.83604
G0 F2160 X62.225 Y69.131
G0 F5760 X62.575 Y69.481
G1 F2400 X12.079 Y69.481 E293.46376
G1 X12.079 Y20.531 E295.04165
G1 X62.575 Y20.531 E296.66937
G1 X62.575 Y68.647 E298.22038
G0 F2160 X62.575 Y69.481
G0 F5760 X62.9 Y69.806
;TYPE:WALL-OUTER
G1 F2025 X11.754 Y69.806 E299.86906
G1 X11.754 Y20.206 E301.4679
G1 X62.9 Y20.206 E303.11657
G1 X62.9 Y68.972 E304.68853
G0 F1822.5 X62.9 Y69.806
G0 F5760 X62.7 Y69.806
G0 X62.7 Y69.531
G0 X62.14 Y68.791
G0 X61.885 Y68.791
;TYPE:SKIN
G1 F1500 X12.769 Y68.791 E306.27177
G1 X12.769 Y21.221 E307.80518
G1 X61.885 Y21.221 E309.38842
G1 X61.885 Y67.957 E310.89494
G0 F1350 X61.885 Y68.791
G0 F5760 X61.726 Y68.451
G1 F1500 X61.545 Y68.633 E310.90321
G0 F5760 X61.05 Y68.633
G1 F1500 X61.726 Y67.956 E310.93405
G0 F5760 X61.726 Y67.461
G1 F1500 X60.555 Y68.633 E310.98746
G0 F5760 X60.06 Y68.633
G1 F1500 X61.726 Y66.966 E311.06343
G0 F5760 X61.726 Y66.471
G1 F1500 X59.565 Y68.633 E311.16196
G0 F5760 X59.07 Y68.633
G1 F1500 X61.726 Y65.976 E311.28306
G0 F5760 X61.726 Y65.481
G1 F1500 X58.575 Y68.633 E311.42673
G0 F5760 X58.08 Y68.633
G1 F1500 X61.726 Y64.986 E311.59296
G0 F5760 X61.726 Y64.491
G1 F1500 X57.585 Y68.633 E311.78176
G0 F5760 X57.09 Y68.633
G1 F1500 X61.726 Y63.996 E311.99312
G0 F5760 X61.726 Y63.501
G1 F1500 X56.595 Y68.633 E312.22705
G0 F5760 X56.1 Y68.633
G1 F1500 X61.726 Y63.006 E312.48355
G0 F5760 X61.726 Y62.511
G1 F1500 X55.605 Y68.633 E312.76261
G0 F5760 X55.11 Y68.633
G1 F1500 X61.726 Y62.016 E313.06423
G0 F5760 X61.726 Y61.521
G1 F1500 X54.615 Y68.633 E313.38842
G0 F5760 X54.12 Y68.633
G1 F1500 X61.726 Y61.026 E313.73518
G0 F5760 X61.726 Y60.531
G1 F1500 X53.625 Y68.633 E314.1045
G0 F5760 X53.13 Y68.633
G1 F1500 X61.726 Y60.036 E314.49638
G0 F5760 X61.726 Y59.541
G1 F1500 X52.635 Y68.633 E314.91084
G0 F5760 X52.14 Y68.633
G1 F1500 X61.726 Y59.046 E315.34785
G0 F5760 X61.726 Y58.551
G1 F1500 X51.645 Y68.633 E315.80744
G0 F5760 X51.15 Y68.633
G1 F1500 X61.726 Y58.057 E316.28956
G0 F5760 X61.726 Y57.562
G1 F1500 X50.655 Y68.633 E316.79425
G0 F5760 X50.16 Y68.633
G1 F1500 X61.726 Y57.067 E317.32151
G0 F5760 X61.726 Y56.572
G1 F1500 X49.665 Y68.633 E317.87133
G0 F5760 X49.17 Y68.633
G1 F1500 X61.726 Y56.077 E318.44372
G0 F5760 X61.726 Y55.582
G1 F1500 X48.675 Y68.633 E319.03867
G0 F5760 X48.18 Y68.633
G1 F1500 X61.726 Y55.087 E319.65619
G0 F5760 X61.726 Y54.592
